packages/icon/src/svg/Social/MdGithubFilled.svg

<svg height="40" viewBox="0 0 40 40" width="40" xmlns="http://www.w3.org/2000/svg"><path d="m13 0c7.1786847 0 13 5.82131525 13 13 0 7.1794858-5.8209163 13-13 13-7.17988475 0-13-5.8201153-13-13 0-7.17908374 5.82051421-13 13-13zm.1032258 5c-4.47419354 0-8.1032258 3.4838174-8.1032258 8.0726633 0 3.6690916 2.18709677 6.8088283 5.4129032 7.9072399.4096774.0760948.5580645-.1852743.5580645-.4003247l-.0096774-2.7658797c0-.7774902.2516129-1.2737604.5483871-1.5351295-1.80322579-.2084335-3.70322579-.4631856-3.70322579-3.6558577 0-.9065204.31612904-1.3630891.83225807-1.948688-.08387097-.2150505-.35806452-1.09841157.08387097-2.24645016.51367127-.16636871 1.53668345.43932861 1.99471245.73718724l.231094.15609927c.6451613-.18527424 1.3387097-.28121983 2.0258064-.28121983.6870968 0 1.3806452.09594559 2.0258065.28121983 0 0 1.5516129-1.10833697 2.2258065-.89328651.389943 1.01005599.2223462 1.81919976.1198991 2.14333606l-.0360282.1031141c.5161291.5822905.7612903 1.0388591.7612903 1.948688 0 2.838666-1.4472442 3.3587239-3.0395042 3.5835233l-.5830764.0723344c.2322581.218359.4419355.585599.516129 1.114954.4612904.2183589 1.6451613.5855989 2.3516129-.69147l.081502-.131602c.3956324-.580448.9898348-.6978801 1.1322036-.7181687l.0314557-.0038142.1124118.002679c.6021982.0406336-.0607989.5068252-.0607989.5068252l-.1035947.0586584c-.3715135.2463736-.648887.8169212-.750702 1.0501285l-.0977296.2484869c-.4698449 1.0696513-1.9740978.9484999-2.4963487.8711228l-.1806572-.0315735-.0096775 2.0313997c0 .2150505.1451613.4764195.5580646.4003247 3.216129-1.1050285 5.4677419-4.2447652 5.4677419-7.9138568 0-4.5888459-3.4225806-8.0726633-7.8967742-8.0726633z" fill="#2F313A" transform="translate(7 7)"/></svg>

<?xml version="1.0" encoding="UTF-8"?>
<svg width="40px" height="40px" viewBox="0 0 40 40" version="1.1" xmlns="http://www.w3.org/2000/svg" xmlns:xlink="http://www.w3.org/1999/xlink">
    <title>Vector Files/40x40/Flattened/Social/Github (Filled)</title>
    <g id="40x40/Flattened/Social/Github-(Filled)" stroke="none" stroke-width="1" fill="none" fill-rule="evenodd">
        <g id="Icon" transform="translate(7.000000, 7.000000)" fill="#2F313A" fill-rule="nonzero">
            <path d="M13,0 C20.1786847,0 26,5.82131525 26,13 C26,20.1794858 20.1790837,26 13,26 C5.82011525,26 0,20.1798847 0,13 C0,5.82091626 5.82051421,0 13,0 Z M13.1032258,5 C8.62903226,5 5,8.4838174 5,13.0726633 C5,16.7417549 7.18709677,19.8814916 10.4129032,20.9799032 C10.8225806,21.055998 10.9709677,20.7946289 10.9709677,20.5795785 L10.9709677,20.5795785 L10.9612903,17.8136988 C10.9612903,17.0362086 11.2129032,16.5399384 11.5096774,16.2785693 C9.70645161,16.0701358 7.80645161,15.8153837 7.80645161,12.6227116 C7.80645161,11.7161912 8.12258065,11.2596225 8.63870968,10.6740236 C8.55483871,10.4589731 8.28064516,9.57561203 8.72258065,8.42757344 C9.23625192,8.26120473 10.2592641,8.86690205 10.7172931,9.16476068 L10.7172931,9.16476068 L10.9483871,9.32085995 C11.5935484,9.13558571 12.2870968,9.03964012 12.9741935,9.03964012 C13.6612903,9.03964012 14.3548387,9.13558571 15,9.32085995 C15,9.32085995 16.5516129,8.21252298 17.2258065,8.42757344 C17.6157495,9.43762943 17.4481527,10.2467732 17.3457056,10.5709095 L17.3457056,10.5709095 L17.3096774,10.6740236 C17.8258065,11.2563141 18.0709677,11.7128827 18.0709677,12.6227116 C18.0709677,15.4613776 16.6237235,15.9814355 15.0314635,16.2062349 L15.0314635,16.2062349 L14.4483871,16.2785693 C14.6806452,16.4969283 14.8903226,16.8641683 14.9645161,17.3935233 C15.4258065,17.6118822 16.6096774,17.9791222 17.316129,16.7020533 L17.316129,16.7020533 L17.397631,16.5704513 C17.7932634,15.9900033 18.3874658,15.8725712 18.5298346,15.8522826 L18.5612903,15.8484684 L18.6737021,15.8511474 C19.2759003,15.891781 18.6129032,16.3579726 18.6129032,16.3579726 L18.6129032,16.3579726 L18.5093085,16.416631 C18.137795,16.6630046 17.8604215,17.2335522 17.7586065,17.4667595 L17.7586065,17.4667595 L17.6608769,17.7152464 C17.191032,18.7848977 15.6867791,18.6637463 15.1645282,18.5863692 L15.1645282,18.5863692 L14.983871,18.5547957 L14.9741935,20.5861954 C14.9741935,20.8012459 15.1193548,21.0626149 15.5322581,20.9865201 C18.7483871,19.8814916 21,16.7417549 21,13.0726633 C21,8.4838174 17.5774194,5 13.1032258,5 Z" id="Combined-Shape"></path>
        </g>
    </g>
</svg>
